launcher/android/assets/skins/day/svg/cb.svg

<svg enable-background="new 0 0 512.00 512.00" height="512" viewBox="0 0 512 512" width="512" xmlns="http://www.w3.org/2000/svg" xmlns:xlink="http://www.w3.org/1999/xlink"><linearGradient id="a" gradientTransform="matrix(0 1 -1 0 .196261 -.803739)" gradientUnits="objectBoundingBox" x1=".5" x2="2.10748" y1="-.303739" y2="-.303739"><stop offset=".133621"/><stop offset=".418103" stop-color="#fff" stop-opacity="0"/></linearGradient><linearGradient id="b" gradientTransform="matrix(0 1 -1 0 -.963542 -1.963542)" gradientUnits="objectBoundingBox" x1=".5" x2="4.42708" y1="-1.46354" y2="-1.46354"><stop offset=".327586" stop-color="#fafcf5"/><stop offset=".577586" stop-color="#fff" stop-opacity="0"/><stop offset="1" stop-color="#1b1c1a" stop-opacity="0"/></linearGradient><linearGradient id="c" gradientTransform="matrix(0 -1 1 0 -2.477293 3.477753)" gradientUnits="objectBoundingBox" x1=".50023" x2="5.48716" y1="2.97752" y2="2.97752"><stop offset=".271552" stop-color="#fafcf5"/><stop offset=".625" stop-color="#fff" stop-opacity="0"/></linearGradient><g stroke-linejoin="round"><path d="m101.458 393.479h308.917c33.137 0 60 26.863 60 60v149.626c0 33.137-26.863 60-60 60h-308.917c-33.1367 0-59.9996-26.863-59.9996-60v-149.626c0-33.137 26.8629-60 59.9996-60z" fill="url(#a)" stroke-width=".2"/><path d="m100.25 122.042h308.917c33.137 0 60 26.863 60 60v149.625c0 33.137-26.863 60-60 60h-308.917c-33.137 0-59.9999-26.863-59.9999-60v-149.625c0-33.137 26.8629-60 59.9999-60z" fill="#829459" stroke="#000" stroke-width="5"/><path d="m110.917 140.792h291c28.995 0 52.5 23.505 52.5 52.5l0 0c0 28.995-23.505 52.5-52.5 52.5h-291c-28.9952 0-52.5002-23.505-52.5002-52.5l0 0c0-28.995 23.505-52.5 52.5002-52.5z" fill="url(#b)" stroke-width=".2"/><path d="m454.917 295.917c.329 2.457 0-2.547 0 23.874 0 30.928-25.072 56-56 56h-285c-30.9281 0-56.0001-25.072-56.0001-56v-23.832c4.0228 32.597 31.8142 57.833 65.5001 57.833h265.001c36.451 0 60.749-30.174 66.499-57.875z" fill="url(#c)" stroke-width=".2"/><path d="m189.47 324.42c-39.998 0-59.997-21.438-59.997-64.313v-.554c.119-42.622 20.189-63.933 60.207-63.933h47.926v22.4h-53.887c-10.484 0-18.312 3.373-23.484 10.12-5.172 6.748-7.758 17.432-7.758 32.055 0 27.883 10.354 41.825 31.063 41.825h53.857v22.4z" fill="#fff" stroke="#fff" stroke-width="6"/><path d="m327.232 195.753c7.542 0 13.961.957 19.258 2.872 5.297 1.916 9.606 4.57 12.928 7.963s5.716 7.379 7.183 11.958c1.466 4.579 2.199 9.523 2.199 14.832 0 4.569-1.147 9.265-3.441 14.087-2.295 4.822-5.996 8.711-11.103 11.667 5.107 3.014 8.808 6.941 11.103 11.783 2.294 4.842 3.441 9.897 3.441 15.167 0 4.783-.733 9.498-2.199 14.146-1.467 4.647-3.861 8.764-7.183 12.352-3.322 3.587-7.601 6.479-12.838 8.677-5.237 2.197-11.687 3.295-19.348 3.295h-65.869v-22.4h69.311c4.469 0 8.11-1.531 10.923-4.593 2.813-3.063 4.22-7.015 4.22-11.856 0-2.042-.414-3.987-1.242-5.834s-1.916-3.471-3.262-4.871c-1.347-1.4-2.913-2.513-4.699-3.339-1.786-.827-3.696-1.24-5.731-1.24h-69.52v-22.4h69.311c4.469 0 8.11-1.453 10.923-4.36s4.22-6.461 4.22-10.661c0-1.983-.414-3.869-1.242-5.658s-1.916-3.364-3.262-4.725c-1.347-1.361-2.913-2.445-4.699-3.252s-3.696-1.21-5.731-1.21h-69.52v-22.4z" stroke="#000" stroke-width="6"/></g></svg>

﻿<?xml version="1.0" encoding="utf-8"?>
<!DOCTYPE svg PUBLIC "-//W3C//DTD SVG 1.1//EN" "http://www.w3.org/Graphics/SVG/1.1/DTD/svg11.dtd">
<svg xmlns="http://www.w3.org/2000/svg" xmlns:xlink="http://www.w3.org/1999/xlink" version="1.1" baseProfile="full" width="512" height="512" viewBox="0 0 512.00 512.00" enable-background="new 0 0 512.00 512.00" xml:space="preserve">
	<linearGradient id="SVGID_Fill1_" gradientUnits="objectBoundingBox" x1="0.5" y1="-0.303739" x2="2.10748" y2="-0.303739" gradientTransform="rotate(90.000000 0.500000 -0.303739)">
		<stop offset="0.133621" stop-color="#000000" stop-opacity="1"/>
		<stop offset="0.418103" stop-color="#FFFFFF" stop-opacity="0"/>
	</linearGradient>
	<path fill="url(#SVGID_Fill1_)" stroke-width="0.2" stroke-linejoin="round" d="M 101.458,393.479L 410.375,393.479C 443.512,393.479 470.375,420.342 470.375,453.479L 470.375,603.105C 470.375,636.242 443.512,663.105 410.375,663.105L 101.458,663.105C 68.3213,663.105 41.4584,636.242 41.4584,603.105L 41.4584,453.479C 41.4584,420.342 68.3213,393.479 101.458,393.479 Z "/>
	<path fill="#829459" fill-opacity="1" stroke-width="5" stroke-linejoin="round" stroke="#000000" stroke-opacity="1" d="M 100.25,122.042L 409.167,122.042C 442.304,122.042 469.167,148.905 469.167,182.042L 469.167,331.667C 469.167,364.804 442.304,391.667 409.167,391.667L 100.25,391.667C 67.113,391.667 40.2501,364.804 40.2501,331.667L 40.2501,182.042C 40.2501,148.905 67.113,122.042 100.25,122.042 Z "/>
	<linearGradient id="SVGID_Fill2_" gradientUnits="objectBoundingBox" x1="0.5" y1="-1.46354" x2="4.42708" y2="-1.46354" gradientTransform="rotate(90.000000 0.500000 -1.463542)">
		<stop offset="0.327586" stop-color="#FAFCF5" stop-opacity="1"/>
		<stop offset="0.577586" stop-color="#FFFFFF" stop-opacity="0"/>
		<stop offset="1" stop-color="#1B1C1A" stop-opacity="0"/>
	</linearGradient>
	<path fill="url(#SVGID_Fill2_)" stroke-width="0.2" stroke-linejoin="round" d="M 110.917,140.792L 401.917,140.792C 430.912,140.792 454.417,164.297 454.417,193.292L 454.417,193.292C 454.417,222.287 430.912,245.792 401.917,245.792L 110.917,245.792C 81.9218,245.792 58.4168,222.287 58.4168,193.292L 58.4168,193.292C 58.4168,164.297 81.9218,140.792 110.917,140.792 Z "/>
	<linearGradient id="SVGID_Fill3_" gradientUnits="objectBoundingBox" x1="0.50023" y1="2.97752" x2="5.48716" y2="2.97752" gradientTransform="rotate(-90.000000 0.500230 2.977523)">
		<stop offset="0.271552" stop-color="#FAFCF5" stop-opacity="1"/>
		<stop offset="0.625" stop-color="#FFFFFF" stop-opacity="0"/>
	</linearGradient>
	<path fill="url(#SVGID_Fill3_)" stroke-width="0.2" stroke-linejoin="round" d="M 454.917,295.917C 455.246,298.374 454.917,293.37 454.917,319.791C 454.917,350.719 429.845,375.791 398.917,375.791L 113.917,375.791C 82.9889,375.791 57.9169,350.719 57.9169,319.791L 57.9169,295.959C 61.9397,328.556 89.7311,353.792 123.417,353.792L 388.418,353.792C 424.869,353.792 449.167,323.618 454.917,295.917 Z "/>
	<g>
		<path fill="#FFFFFF" fill-opacity="1" stroke-width="6" stroke-linejoin="round" stroke="#FFFFFF" stroke-opacity="1" d="M 189.47,324.42C 149.472,324.42 129.473,302.982 129.473,260.107L 129.473,259.553C 129.592,216.931 149.662,195.62 189.68,195.62L 237.606,195.62L 237.606,218.02L 183.719,218.02C 173.235,218.02 165.407,221.393 160.235,228.14C 155.063,234.888 152.477,245.572 152.477,260.195C 152.477,288.078 162.831,302.02 183.54,302.02L 237.397,302.02L 237.397,324.42L 189.47,324.42 Z "/>
	</g>
	<g>
		<path fill="#000000" fill-opacity="1" stroke-width="6" stroke-linejoin="round" stroke="#000000" stroke-opacity="1" d="M 327.232,195.753C 334.774,195.753 341.193,196.71 346.49,198.625C 351.787,200.541 356.096,203.195 359.418,206.588C 362.74,209.981 365.134,213.967 366.601,218.546C 368.067,223.125 368.8,228.069 368.8,233.378C 368.8,237.947 367.653,242.643 365.359,247.465C 363.064,252.287 359.363,256.176 354.256,259.132C 359.363,262.146 363.064,266.073 365.359,270.915C 367.653,275.757 368.8,280.812 368.8,286.082C 368.8,290.865 368.067,295.58 366.601,300.228C 365.134,304.875 362.74,308.992 359.418,312.58C 356.096,316.167 351.817,319.059 346.58,321.257C 341.343,323.454 334.893,324.552 327.232,324.552L 261.363,324.552L 261.363,302.152L 330.674,302.152C 335.143,302.152 338.784,300.621 341.597,297.559C 344.41,294.496 345.817,290.544 345.817,285.703C 345.817,283.661 345.403,281.716 344.575,279.869C 343.747,278.022 342.659,276.398 341.313,274.998C 339.966,273.598 338.4,272.485 336.614,271.659C 334.828,270.832 332.918,270.419 330.883,270.419L 261.363,270.419L 261.363,248.019L 330.674,248.019C 335.143,248.019 338.784,246.566 341.597,243.659C 344.41,240.752 345.817,237.198 345.817,232.998C 345.817,231.015 345.403,229.129 344.575,227.34C 343.747,225.551 342.659,223.976 341.313,222.615C 339.966,221.254 338.4,220.17 336.614,219.363C 334.828,218.556 332.918,218.153 330.883,218.153L 261.363,218.153L 261.363,195.753L 327.232,195.753 Z "/>
	</g>
</svg>
